X:1
L:1/8
Q:3/8=110
M:6/8
K:G
 dgd BdB | GGG GAB | cBA BAG | FGA D2 (B/c/) | dgd BdB | GGG GAB | Aed cBA | G3 G,3 :: DAc cBA | 
 DBc dcB | DAB cBA | BAB A3 | DAB cBA | Bcd efg | ded cBA | G3 G,3 :| </s><end_of_turn>
<start_of_turn>model
Sure, here is the extracted motif in ABC format:

dgd BdB | GGG GAB | cBA BAG | FGA D2 (B/c/) |<eos>

id:5
<bos><start_of_turn>user
You will see an instruction related to extracting the motif of a piece of ABC music. Your responses should only include the extracted motif in ABC format.

data is:
Human: Analyze the musical work and pinpoint the consistent melodic element in every section.
